svg/icon/mds.svg

<svg height="32" viewBox="0 0 32 32" width="32" xmlns="http://www.w3.org/2000/svg" xmlns:xlink="http://www.w3.org/1999/xlink"><defs><linearGradient id="a" x1="50%" x2="50%" y1="0%" y2="100%"><stop offset="0" stop-color="#fff" stop-opacity=".5"/><stop offset="1" stop-opacity=".5"/></linearGradient><circle id="b" cx="16" cy="15" r="15"/><filter id="c" height="111.7%" width="111.7%" x="-5.8%" y="-4.2%"><feOffset dy=".5" in="SourceAlpha" result="shadowOffsetOuter1"/><feGaussianBlur in="shadowOffsetOuter1" result="shadowBlurOuter1" stdDeviation=".5"/><feComposite in="shadowBlurOuter1" in2="SourceAlpha" operator="out" result="shadowBlurOuter1"/><feColorMatrix in="shadowBlurOuter1" values="0 0 0 0 0   0 0 0 0 0   0 0 0 0 0  0 0 0 0.199473505 0"/></filter><path id="d" d="m14.2191781 14.5890411c-.8322099 0-1.5068493-.6746394-1.5068493-1.5068493s.6746394-1.5068493 1.5068493-1.5068493 1.5068493.6746394 1.5068493 1.5068493-.6746394 1.5068493-1.5068493 1.5068493zm3.6986301 0c-.8322099 0-1.5068493-.6746394-1.5068493-1.5068493s.6746394-1.5068493 1.5068493-1.5068493 1.5068493.6746394 1.5068493 1.5068493-.6746394 1.5068493-1.5068493 1.5068493zm-3.6986301 3.6986301c-.8322099 0-1.5068493-.6746394-1.5068493-1.5068493s.6746394-1.5068493 1.5068493-1.5068493 1.5068493.6746394 1.5068493 1.5068493-.6746394 1.5068493-1.5068493 1.5068493zm3.6986301 0c-.8322099 0-1.5068493-.6746394-1.5068493-1.5068493s.6746394-1.5068493 1.5068493-1.5068493 1.5068493.6746394 1.5068493 1.5068493-.6746394 1.5068493-1.5068493 1.5068493zm3.6986302-4.109589c-.6052436 0-1.0958905-.4906469-1.0958905-1.0958904 0-.6052436.4906469-1.0958904 1.0958905-1.0958904.6052435 0 1.0958904.4906468 1.0958904 1.0958904 0 .6052435-.4906469 1.0958904-1.0958904 1.0958904zm0 3.6986301c-.6052436 0-1.0958905-.4906468-1.0958905-1.0958904 0-.6052435.4906469-1.0958904 1.0958905-1.0958904.6052435 0 1.0958904.4906469 1.0958904 1.0958904 0 .6052436-.4906469 1.0958904-1.0958904 1.0958904zm-11.2328768-3.6986301c-.60524352 0-1.09589037-.4906469-1.09589037-1.0958904 0-.6052436.49064685-1.0958904 1.09589037-1.0958904.6052436 0 1.0958905.4906468 1.0958905 1.0958904 0 .6052435-.4906469 1.0958904-1.0958905 1.0958904zm0 3.6986301c-.60524352 0-1.09589037-.4906468-1.09589037-1.0958904 0-.6052435.49064685-1.0958904 1.09589037-1.0958904.6052436 0 1.0958905.4906469 1.0958905 1.0958904 0 .6052436-.4906469 1.0958904-1.0958905 1.0958904zm3.8356165 3.6986302c-.6052436 0-1.0958904-.4906469-1.0958904-1.0958904 0-.6052436.4906468-1.0958905 1.0958904-1.0958905.6052435 0 1.0958904.4906469 1.0958904 1.0958905 0 .6052435-.4906469 1.0958904-1.0958904 1.0958904zm3.6986301 0c-.6052435 0-1.0958904-.4906469-1.0958904-1.0958904 0-.6052436.4906469-1.0958905 1.0958904-1.0958905.6052436 0 1.0958904.4906469 1.0958904 1.0958905 0 .6052435-.4906468 1.0958904-1.0958904 1.0958904zm-3.6986301-11.0958904c-.6052436 0-1.0958904-.49064689-1.0958904-1.09589046 0-.60524356.4906468-1.09589041 1.0958904-1.09589041.6052435 0 1.0958904.49064685 1.0958904 1.09589041 0 .60524357-.4906469 1.09589046-1.0958904 1.09589046zm3.6986301 0c-.6052435 0-1.0958904-.49064689-1.0958904-1.09589046 0-.60524356.4906469-1.09589041 1.0958904-1.09589041.6052436 0 1.0958904.49064685 1.0958904 1.09589041 0 .60524357-.4906468 1.09589046-1.0958904 1.09589046zm-3.6986301-4.10958909c-.3782772 0-.6849315-.30665428-.6849315-.6849315 0-.37827723.3066543-.68493151.6849315-.68493151s.6849315.30665428.6849315.68493151c0 .37827722-.3066543.6849315-.6849315.6849315zm3.6986301 0c-.3782772 0-.6849315-.30665428-.6849315-.6849315 0-.37827723.3066543-.68493151.6849315-.68493151s.6849315.30665428.6849315.68493151c0 .37827722-.3066543.6849315-.6849315.6849315zm7.3972603 7.39726029c-.3782772 0-.6849315-.3066543-.6849315-.6849315s.3066543-.6849315.6849315-.6849315.6849315.3066543.6849315.6849315-.3066543.6849315-.6849315.6849315zm0 3.6986301c-.3782772 0-.6849315-.3066543-.6849315-.6849315s.3066543-.6849315.6849315-.6849315.6849315.3066543.6849315.6849315-.3066543.6849315-.6849315.6849315zm-18.63013699-3.6986301c-.37827723 0-.68493151-.3066543-.68493151-.6849315s.30665428-.6849315.68493151-.6849315c.37827722 0 .6849315.3066543.6849315.6849315s-.30665428.6849315-.6849315.6849315zm0 3.6986301c-.37827723 0-.68493151-.3066543-.68493151-.6849315s.30665428-.6849315.68493151-.6849315c.37827722 0 .6849315.3066543.6849315.6849315s-.30665428.6849315-.6849315.6849315zm7.53424659 7.5342466c-.3782772 0-.6849315-.3066543-.6849315-.6849315s.3066543-.6849315.6849315-.6849315.6849315.3066543.6849315.6849315-.3066543.6849315-.6849315.6849315zm3.6986301 0c-.3782772 0-.6849315-.3066543-.6849315-.6849315s.3066543-.6849315.6849315-.6849315.6849315.3066543.6849315.6849315-.3066543.6849315-.6849315.6849315z"/><filter id="e" height="117.5%" width="117.5%" x="-8.8%" y="-6.2%"><feOffset dy=".5" in="SourceAlpha" result="shadowOffsetOuter1"/><feGaussianBlur in="shadowOffsetOuter1" result="shadowBlurOuter1" stdDeviation=".5"/><feColorMatrix in="shadowBlurOuter1" values="0 0 0 0 0   0 0 0 0 0   0 0 0 0 0  0 0 0 0.204257246 0"/></filter></defs><g fill="none" fill-rule="evenodd"><use fill="#000" filter="url(#c)" xlink:href="#b"/><use fill="#1e252c" xlink:href="#b"/><use fill="url(#a)" xlink:href="#b"/><circle cx="16" cy="15" r="14.5" stroke="#000" stroke-opacity=".097"/><g fill-rule="nonzero"><use fill="#000" filter="url(#e)" xlink:href="#d"/><use fill="#fff" fill-rule="evenodd" xlink:href="#d"/></g></g></svg>

<svg xmlns="http://www.w3.org/2000/svg" xmlns:xlink="http://www.w3.org/1999/xlink" width="32" height="32" viewBox="0 0 32 32">
  <defs>
    <linearGradient id="mds-c" x1="50%" x2="50%" y1="0%" y2="100%">
      <stop offset="0%" stop-color="#FFF" stop-opacity=".5"/>
      <stop offset="100%" stop-opacity=".5"/>
    </linearGradient>
    <circle id="mds-b" cx="16" cy="15" r="15"/>
    <filter id="mds-a" width="111.7%" height="111.7%" x="-5.8%" y="-4.2%" filterUnits="objectBoundingBox">
      <feOffset dy=".5" in="SourceAlpha" result="shadowOffsetOuter1"/>
      <feGaussianBlur in="shadowOffsetOuter1" result="shadowBlurOuter1" stdDeviation=".5"/>
      <feComposite in="shadowBlurOuter1" in2="SourceAlpha" operator="out" result="shadowBlurOuter1"/>
      <feColorMatrix in="shadowBlurOuter1" values="0 0 0 0 0   0 0 0 0 0   0 0 0 0 0  0 0 0 0.199473505 0"/>
    </filter>
    <path id="mds-e" d="M14.2191781,14.5890411 C13.3869682,14.5890411 12.7123288,13.9144017 12.7123288,13.0821918 C12.7123288,12.2499819 13.3869682,11.5753425 14.2191781,11.5753425 C15.051388,11.5753425 15.7260274,12.2499819 15.7260274,13.0821918 C15.7260274,13.9144017 15.051388,14.5890411 14.2191781,14.5890411 Z M17.9178082,14.5890411 C17.0855983,14.5890411 16.4109589,13.9144017 16.4109589,13.0821918 C16.4109589,12.2499819 17.0855983,11.5753425 17.9178082,11.5753425 C18.7500181,11.5753425 19.4246575,12.2499819 19.4246575,13.0821918 C19.4246575,13.9144017 18.7500181,14.5890411 17.9178082,14.5890411 Z M14.2191781,18.2876712 C13.3869682,18.2876712 12.7123288,17.6130318 12.7123288,16.7808219 C12.7123288,15.948612 13.3869682,15.2739726 14.2191781,15.2739726 C15.051388,15.2739726 15.7260274,15.948612 15.7260274,16.7808219 C15.7260274,17.6130318 15.051388,18.2876712 14.2191781,18.2876712 Z M17.9178082,18.2876712 C17.0855983,18.2876712 16.4109589,17.6130318 16.4109589,16.7808219 C16.4109589,15.948612 17.0855983,15.2739726 17.9178082,15.2739726 C18.7500181,15.2739726 19.4246575,15.948612 19.4246575,16.7808219 C19.4246575,17.6130318 18.7500181,18.2876712 17.9178082,18.2876712 Z M21.6164384,14.1780822 C21.0111948,14.1780822 20.5205479,13.6874353 20.5205479,13.0821918 C20.5205479,12.4769482 21.0111948,11.9863014 21.6164384,11.9863014 C22.2216819,11.9863014 22.7123288,12.4769482 22.7123288,13.0821918 C22.7123288,13.6874353 22.2216819,14.1780822 21.6164384,14.1780822 Z M21.6164384,17.8767123 C21.0111948,17.8767123 20.5205479,17.3860655 20.5205479,16.7808219 C20.5205479,16.1755784 21.0111948,15.6849315 21.6164384,15.6849315 C22.2216819,15.6849315 22.7123288,16.1755784 22.7123288,16.7808219 C22.7123288,17.3860655 22.2216819,17.8767123 21.6164384,17.8767123 Z M10.3835616,14.1780822 C9.77831808,14.1780822 9.28767123,13.6874353 9.28767123,13.0821918 C9.28767123,12.4769482 9.77831808,11.9863014 10.3835616,11.9863014 C10.9888052,11.9863014 11.4794521,12.4769482 11.4794521,13.0821918 C11.4794521,13.6874353 10.9888052,14.1780822 10.3835616,14.1780822 Z M10.3835616,17.8767123 C9.77831808,17.8767123 9.28767123,17.3860655 9.28767123,16.7808219 C9.28767123,16.1755784 9.77831808,15.6849315 10.3835616,15.6849315 C10.9888052,15.6849315 11.4794521,16.1755784 11.4794521,16.7808219 C11.4794521,17.3860655 10.9888052,17.8767123 10.3835616,17.8767123 Z M14.2191781,21.5753425 C13.6139345,21.5753425 13.1232877,21.0846956 13.1232877,20.4794521 C13.1232877,19.8742085 13.6139345,19.3835616 14.2191781,19.3835616 C14.8244216,19.3835616 15.3150685,19.8742085 15.3150685,20.4794521 C15.3150685,21.0846956 14.8244216,21.5753425 14.2191781,21.5753425 Z M17.9178082,21.5753425 C17.3125647,21.5753425 16.8219178,21.0846956 16.8219178,20.4794521 C16.8219178,19.8742085 17.3125647,19.3835616 17.9178082,19.3835616 C18.5230518,19.3835616 19.0136986,19.8742085 19.0136986,20.4794521 C19.0136986,21.0846956 18.5230518,21.5753425 17.9178082,21.5753425 Z M14.2191781,10.4794521 C13.6139345,10.4794521 13.1232877,9.98880521 13.1232877,9.38356164 C13.1232877,8.77831808 13.6139345,8.28767123 14.2191781,8.28767123 C14.8244216,8.28767123 15.3150685,8.77831808 15.3150685,9.38356164 C15.3150685,9.98880521 14.8244216,10.4794521 14.2191781,10.4794521 Z M17.9178082,10.4794521 C17.3125647,10.4794521 16.8219178,9.98880521 16.8219178,9.38356164 C16.8219178,8.77831808 17.3125647,8.28767123 17.9178082,8.28767123 C18.5230518,8.28767123 19.0136986,8.77831808 19.0136986,9.38356164 C19.0136986,9.98880521 18.5230518,10.4794521 17.9178082,10.4794521 Z M14.2191781,6.36986301 C13.8409009,6.36986301 13.5342466,6.06320873 13.5342466,5.68493151 C13.5342466,5.30665428 13.8409009,5 14.2191781,5 C14.5974553,5 14.9041096,5.30665428 14.9041096,5.68493151 C14.9041096,6.06320873 14.5974553,6.36986301 14.2191781,6.36986301 Z M17.9178082,6.36986301 C17.539531,6.36986301 17.2328767,6.06320873 17.2328767,5.68493151 C17.2328767,5.30665428 17.539531,5 17.9178082,5 C18.2960854,5 18.6027397,5.30665428 18.6027397,5.68493151 C18.6027397,6.06320873 18.2960854,6.36986301 17.9178082,6.36986301 Z M25.3150685,13.7671233 C24.9367913,13.7671233 24.630137,13.460469 24.630137,13.0821918 C24.630137,12.7039146 24.9367913,12.3972603 25.3150685,12.3972603 C25.6933457,12.3972603 26,12.7039146 26,13.0821918 C26,13.460469 25.6933457,13.7671233 25.3150685,13.7671233 Z M25.3150685,17.4657534 C24.9367913,17.4657534 24.630137,17.1590991 24.630137,16.7808219 C24.630137,16.4025447 24.9367913,16.0958904 25.3150685,16.0958904 C25.6933457,16.0958904 26,16.4025447 26,16.7808219 C26,17.1590991 25.6933457,17.4657534 25.3150685,17.4657534 Z M6.68493151,13.7671233 C6.30665428,13.7671233 6,13.460469 6,13.0821918 C6,12.7039146 6.30665428,12.3972603 6.68493151,12.3972603 C7.06320873,12.3972603 7.36986301,12.7039146 7.36986301,13.0821918 C7.36986301,13.460469 7.06320873,13.7671233 6.68493151,13.7671233 Z M6.68493151,17.4657534 C6.30665428,17.4657534 6,17.1590991 6,16.7808219 C6,16.4025447 6.30665428,16.0958904 6.68493151,16.0958904 C7.06320873,16.0958904 7.36986301,16.4025447 7.36986301,16.7808219 C7.36986301,17.1590991 7.06320873,17.4657534 6.68493151,17.4657534 Z M14.2191781,25 C13.8409009,25 13.5342466,24.6933457 13.5342466,24.3150685 C13.5342466,23.9367913 13.8409009,23.630137 14.2191781,23.630137 C14.5974553,23.630137 14.9041096,23.9367913 14.9041096,24.3150685 C14.9041096,24.6933457 14.5974553,25 14.2191781,25 Z M17.9178082,25 C17.539531,25 17.2328767,24.6933457 17.2328767,24.3150685 C17.2328767,23.9367913 17.539531,23.630137 17.9178082,23.630137 C18.2960854,23.630137 18.6027397,23.9367913 18.6027397,24.3150685 C18.6027397,24.6933457 18.2960854,25 17.9178082,25 Z"/>
    <filter id="mds-d" width="117.5%" height="117.5%" x="-8.8%" y="-6.2%" filterUnits="objectBoundingBox">
      <feOffset dy=".5" in="SourceAlpha" result="shadowOffsetOuter1"/>
      <feGaussianBlur in="shadowOffsetOuter1" result="shadowBlurOuter1" stdDeviation=".5"/>
      <feColorMatrix in="shadowBlurOuter1" values="0 0 0 0 0   0 0 0 0 0   0 0 0 0 0  0 0 0 0.204257246 0"/>
    </filter>
  </defs>
  <g fill="none" fill-rule="evenodd">
    <use fill="#000" filter="url(#mds-a)" xlink:href="#mds-b"/>
    <use fill="#1E252C" xlink:href="#mds-b"/>
    <use fill="url(#mds-c)" style="mix-blend-mode:soft-light" xlink:href="#mds-b"/>
    <circle cx="16" cy="15" r="14.5" stroke="#000" stroke-opacity=".097"/>
    <g fill-rule="nonzero">
      <use fill="#000" filter="url(#mds-d)" xlink:href="#mds-e"/>
      <use fill="#FFF" fill-rule="evenodd" xlink:href="#mds-e"/>
    </g>
  </g>
</svg>
